infra-templates/rbd/catalogIcon-rbd.svg

<?xml version="1.0" encoding="utf-8"?>
<!-- Generator: Adobe Illustrator 21.0.2, SVG Export Plug-In . SVG Version: 6.00 Build 0)  -->
<svg version="1.1" id="Layer_1" xmlns="http://www.w3.org/2000/svg" xmlns:xlink="http://www.w3.org/1999/xlink" x="0px" y="0px"
	 viewBox="0 0 92 90" style="enable-background:new 0 0 92 90;" xml:space="preserve">
<style type="text/css">
	.st0{fill:#EE7C6B;}
</style>
<g>
	<path class="st0" d="M92,44.5c0-0.4-0.1-0.8-0.1-1.4c-0.1-1.4-0.3-3.4-0.6-5.3c-2.6-14.5-11.6-26.5-24.6-33
		C53.5-1.7,38.3-1.6,25.1,5C7,14.1-2.8,33.8,0.7,53.9c1.8,10.3,7,19.4,15.4,26.9c1,0.9,1.9,0.9,2.9,0.2c0.3-0.2,0.6-0.5,0.9-0.7
		c0.5-0.4,1.1-0.8,1.6-1.2c2.8-2.6,3.3-5.6,1.3-8.8c-0.6-1-1.3-1.9-2-2.7c-0.2-0.3-0.4-0.5-0.6-0.8c-6.9-8.9-9-18.7-6.3-29.2
		c4.4-17.1,21.6-27.7,39.1-24.1c15.3,3.2,26.4,16.8,26.3,32.4c0,8-2.7,15.3-8,21.6c-1.1,1.3-1.9,2.5-2.5,3.8
		c-1.3,2.6-0.8,5.3,1.3,7.4c0.6,0.6,1.3,1.1,1.9,1.5c0.3,0.3,0.7,0.5,1,0.8c0.4,0.4,0.9,0.5,1.3,0.5c0.5,0,1.1-0.2,1.6-0.7
		C86.6,71.2,91.8,59.4,92,44.6C92,44.6,92,44.5,92,44.5z M74.6,79.3c-0.2,0.1-0.2,0.2-0.2,0.2c0,0-0.1,0-0.1-0.1
		c-0.4-0.3-0.7-0.6-1.1-0.8c-0.6-0.4-1.2-0.9-1.7-1.3c-1.5-1.5-1.9-3.2-0.9-5.1c0.6-1.1,1.3-2.3,2.3-3.4c5.6-6.7,8.4-14.4,8.4-22.9
		c0-16.5-11.7-31-27.9-34.3c-2.5-0.5-4.9-0.8-7.3-0.8c-15.8,0-30,10.5-34.1,26.3C9,48.2,11.3,58.6,18.6,68c0.2,0.3,0.4,0.5,0.6,0.8
		c0.7,0.8,1.3,1.7,1.8,2.5c1.4,2.4,1.1,4.4-1,6.3c-0.4,0.4-0.9,0.7-1.4,1.1c-0.4,0.2-0.7,0.5-1,0.8c0,0-0.1,0-0.1,0
		c0,0-0.1-0.1-0.2-0.2C9.3,72,4.4,63.6,2.7,53.6c-3.4-19.2,6-38,23.3-46.8c12.7-6.4,27.2-6.4,39.8-0.2c12.5,6.2,21,17.7,23.5,31.5
		c0.3,1.8,0.5,3.7,0.6,5.1c0,0.5,0.1,1,0.1,1.3C89.8,58.8,84.8,70.1,74.6,79.3z"/>
	<path class="st0" d="M68.3,84.4l-1.1-0.8c-4.4-3.1-6.2-8.8-4.3-13.7c0.8-2.1,2.3-3.8,3.8-5.6L67,64c5.7-6.6,7.9-14.3,6.4-22.8
		C70.7,26,57,16.2,41.5,18.6c-7.8,1.2-14.7,5.7-19,12.4c-4.3,6.7-5.5,14.9-3.3,22.5c1.2,4.3,3.5,8.2,7,12c2.7,2.9,3.9,6.3,3.6,9.7
		c-0.4,3.4-2.4,6.5-5.6,8.8c-0.1,0.1-0.2,0.2-0.4,0.3l-0.2,0.2c-0.2,0.2-0.4,0.5-0.3,0.9s0.2,0.6,0.5,0.8c3.2,1.8,6.4,3,9.6,3.9
		c0.8,0.2,1.6-0.3,2-0.6c4.5-3.7,6.9-8.4,7.1-14c0.3-6.5-1.8-12.5-6.1-17.7c-0.3-0.4-0.6-0.7-0.9-1.1c-0.6-0.7-1.1-1.3-1.6-2
		c-2.4-3.2-3.3-6.9-2.7-10.9c0.7-4.2,3-7.8,6.5-10.2c3.5-2.3,8-3.1,12.1-2c7.1,1.8,11.9,8.4,11.3,15.8c-0.3,3.4-1.7,6.4-4.3,9.2
		c-4.2,4.5-6.6,9.8-7.1,15.6c-0.6,6.9,1.7,12.7,7,17.3c0.5,0.5,1.1,0.7,1.7,0.7c0.3,0,0.6-0.1,1-0.2c0.7-0.3,1.4-0.5,2-0.7
		c1.2-0.4,2.3-0.8,3.5-1.3c0.8-0.3,1.6-0.7,2.4-1.1c0.4-0.2,0.7-0.4,1.1-0.6c0.3-0.2,0.5-0.5,0.6-0.8S68.6,84.6,68.3,84.4z
		 M63.9,85.9c-1.1,0.5-2.3,0.9-3.4,1.3c-0.7,0.2-1.4,0.5-2.1,0.8c-0.3,0.1-0.4,0.1-0.6-0.1c-4.8-4.2-6.9-9.3-6.3-15.6
		c0.5-5.4,2.7-10.3,6.6-14.5c3-3.2,4.5-6.6,4.9-10.4c0.7-8.3-4.7-15.9-12.8-17.9c-1.4-0.3-2.8-0.5-4.2-0.5c-3.4,0-6.7,1-9.5,2.8
		c-4,2.7-6.7,6.8-7.4,11.6c-0.7,4.6,0.3,8.8,3.1,12.4c0.5,0.7,1.1,1.4,1.7,2.1c0.3,0.4,0.6,0.7,0.9,1.1c4,4.8,5.9,10.3,5.7,16.3
		c-0.2,5-2.4,9.2-6.4,12.6c-0.1,0.1-0.2,0.1-0.3,0.2c-2.6-0.7-5.1-1.6-7.7-3c3.3-2.6,5.2-5.9,5.6-9.6c0.4-4-1-8-4.1-11.3
		c-3.3-3.5-5.4-7.2-6.5-11.2c-2-7-0.9-14.7,3.1-20.9c4-6.2,10.4-10.4,17.6-11.5c14.4-2.2,27.1,6.8,29.6,21c1.4,7.9-0.6,15-5.9,21.1
		L65.3,63c-1.6,1.8-3.2,3.7-4.2,6.1c-2.2,5.7-0.3,12.2,4.7,15.9C65.2,85.4,64.5,85.7,63.9,85.9z"/>
	<path class="st0" d="M55.7,46.4c0-2.6-0.9-5-2.8-6.9c-1.9-1.9-4.4-3-7-3c0,0,0,0,0,0c-5.4,0-9.7,4.4-9.8,9.7c0,2.6,1,5.1,2.8,7
		c1.8,1.9,4.3,2.9,6.9,2.9c0,0,0,0,0,0C51.3,56.2,55.6,51.9,55.7,46.4z M46,54.2C46,54.2,45.9,54.2,46,54.2c-2.1,0-4.1-0.8-5.5-2.3
		c-1.5-1.5-2.3-3.4-2.3-5.5c0-4.3,3.5-7.7,7.8-7.7c0,0,0,0,0,0c2.1,0,4.1,0.9,5.6,2.4c1.5,1.5,2.3,3.4,2.2,5.4
		C53.7,50.8,50.2,54.2,46,54.2z"/>
</g>
</svg>

<?xml version="1.0" encoding="utf-8"?>
<svg version="1.1" id="Layer_1" x="0px" y="0px" viewBox="0 0 92 90" style="enable-background:new 0 0 92 90;" xmlns="http://www.w3.org/2000/svg">
  <style type="text/css">
	.st0{fill:#EE7C6B;}
</style>
  <g>
    <path class="st0" d="M 92 44.5 C 92 44.1 91.9 43.7 91.9 43.1 C 91.8 41.7 91.6 39.7 91.3 37.8 C 88.7 23.3 79.7 11.3 66.7 4.8 C 53.5 -1.7 38.3 -1.6 25.1 5 C 7 14.1 -2.8 33.8 0.7 53.9 C 2.5 64.2 7.7 73.3 16.1 80.8 C 17.1 81.7 18 81.7 19 81 C 19.3 80.8 19.6 80.5 19.9 80.3 C 20.4 79.9 21 79.5 21.5 79.1 C 24.3 76.5 24.8 73.5 22.8 70.3 C 22.2 69.3 21.5 68.4 20.8 67.6 C 20.6 67.3 20.4 67.1 20.2 66.8 C 13.3 57.9 11.2 48.1 13.9 37.6 C 18.3 20.5 35.5 9.9 53 13.5 C 68.3 16.7 79.4 30.3 79.3 45.9 C 79.3 53.9 76.6 61.2 71.3 67.5 C 70.2 68.8 69.4 70 68.8 71.3 C 67.5 73.9 68 76.6 70.1 78.7 C 70.7 79.3 71.4 79.8 72 80.2 C 72.3 80.5 72.7 80.7 73 81 C 73.4 81.4 73.9 81.5 74.3 81.5 C 74.8 81.5 75.4 81.3 75.9 80.8 C 86.6 71.2 91.8 59.4 92 44.6 L 92 44.5 Z"/>
    <path class="st0" d="M 68.3 84.4 L 67.2 83.6 C 62.8 80.5 61 74.8 62.9 69.9 C 63.7 67.8 65.2 66.1 66.7 64.3 L 67 64 C 72.7 57.4 74.9 49.7 73.4 41.2 C 70.7 26 57 16.2 41.5 18.6 C 33.7 19.8 26.8 24.3 22.5 31 C 18.2 37.7 17 45.9 19.2 53.5 C 20.4 57.8 22.7 61.7 26.2 65.5 C 28.9 68.4 30.1 71.8 29.8 75.2 C 29.4 78.6 27.4 81.7 24.2 84 C 24.1 84.1 24 84.2 23.8 84.3 L 23.6 84.5 C 23.4 84.7 23.2 85 23.3 85.4 C 23.4 85.8 23.5 86 23.8 86.2 C 27 88 30.2 89.2 33.4 90.1 C 34.2 90.3 35 89.8 35.4 89.5 C 39.9 85.8 42.3 81.1 42.5 75.5 C 42.8 69 40.7 63 36.4 57.8 C 36.1 57.4 35.8 57.1 35.5 56.7 C 34.9 56 34.4 55.4 33.9 54.7 C 31.5 51.5 30.6 47.8 31.2 43.8 C 31.9 39.6 34.2 36 37.7 33.6 C 41.2 31.3 45.7 30.5 49.8 31.6 C 56.9 33.4 61.7 40 61.1 47.4 C 60.8 50.8 59.4 53.8 56.8 56.6 C 52.6 61.1 50.2 66.4 49.7 72.2 C 49.1 79.1 51.4 84.9 56.7 89.5 C 57.2 90 57.8 90.2 58.4 90.2 C 58.7 90.2 59 90.1 59.4 90 C 60.1 89.7 60.8 89.5 61.4 89.3 C 62.6 88.9 63.7 88.5 64.9 88 C 65.7 87.7 66.5 87.3 67.3 86.9 C 67.7 86.7 68 86.5 68.4 86.3 C 68.7 86.1 68.9 85.8 69 85.5 C 69.1 85.2 68.6 84.6 68.3 84.4 Z"/>
    <path class="st0" d="M 55.7 46.4 C 55.7 43.8 54.8 41.4 52.9 39.5 C 51 37.6 48.5 36.5 45.9 36.5 L 45.9 36.5 C 40.5 36.5 36.2 40.9 36.1 46.2 C 36.1 48.8 37.1 51.3 38.9 53.2 C 40.7 55.1 43.2 56.1 45.8 56.1 L 45.8 56.1 C 51.3 56.2 55.6 51.9 55.7 46.4 Z"/>
  </g>
</svg>
